X:41
M:C|
L:1/8
K:D
f|d>Af>A g>Af>A|d<A f>d e2 e>f|d>Af>A g>Af>A|(3fga (3gfe (3dAF D>f|
d>fA>f d<f A>f|d/e/f A>f e2 e>f|d>f (3efd (3cdB (3ABG|F<A A>C D2D||

